X:1
T: When I Survey the Wondrous Cross
C: Words: Isaac Watts, 1707.
C: Music: 'O Waly Waly' or 'The Water Is Wide', traditional English.  Setting: Tobin Strong, 2013.
C: copyright: public domain.  All portions of the setting that were not already public domain were 
C: released to the public domain by the arranger on 08 January 2014.
C: All other rights reserved.     This score is a part of the Open Hymnal Project, 2014 Revision.
S: Music source: Tobin Strong, 20 Dec 2013 via email.  ABC file contributed to the Open Hymnal by Tobin Strong, 20 Dec 2013.
S: composite from "The Anglican hymn Book", 1871 hymn 127 and "Hymns Ancient and Modern", 1869 Hymn 101.
M: 4/4
L: 1/4
%%staves S1V1 | (S2V1 S2V2) | (S3V1 S3V2) 
%%staffsep 0.62cm
V: S1V1 clef=treble 
%%MIDI beat 127 125 110 1
V: S1V2 
%%MIDI beat 127 125 110 1
V: S2V1 clef=treble 
%%MIDI beat 127 125 110 1
V: S2V2 
%%MIDI beat 127 125 110 1
V: S3V1 clef=bass 
%%MIDI beat 127 125 110 1
V: S3V2 
%%MIDI beat 127 125 110 1
K: G % key signature
%
%%MIDI program 1 0 % Piano 1
%%MIDI program 2 0 % Piano 1
%%MIDI program 3 0 % Piano 1
%%MIDI program 4 0 % Piano 1
%
% 1
[V: S1V1] [Q:1/4=130] D G A | B4- | B A G E | D4- | D D G F |
w: 1.~When I sur- vey * the won- drous cross * On which the 
w: 2.~For- bid it, Lord, * that I should boast, * Save in the 
w: 3.~See from His head, * His hands, His feet, * Sor- row and 
w: 4.~His dy- ing crim- * son, like a robe, * Spreads o'er His 
w: 5.~Were the whole realm * of na- ture mine, * That were a 
[V: S2V1] D G A | B4- | B A G E | D4- | D D G F |
[V: S2V2] D G F | G4- | G F E E | D4- | D D E D |
[V: S3V1] z3 | G,2 B,2 | D4 | B,2 B,2 | B,4 |
[V: S3V2] x3 | D,2 G,2 | G,4 | G,2 G,2 | G,4 |
% 6
[V: S1V1] G4- | G A B c/B/ | A4- | A A B c | d4- | d c/B/ A G |
w: Prince * of Glo- ry * died, * My rich- est gain * I * count but 
w: death * of Christ my * God! * All the vain things * that * charm me 
w: love * flow min- gled * down! * Did e'er such love * and * sor- row 
w: bo- * dy on the * tree; * Then I am dead * to * all the 
w: pre- * sent far too * small; * Love so a- ma- * zing, * so di- 
[V: S2V1] G4- | G A B c/B/ | A4- | A A B c | d4- | d c/B/ A G |
[V: S2V2] E4- | E F G G | A4- | A F G A | B4- | B F F E |
[V: S3V1] B,2 B,2 | C4 | A,2 A, C | D4 | B,2 B,2 | G,4 |
[V: S3V2] G,2 E,2 | C,4 | F,2 F, C, | G,4 | G,2 D,2 | D,4 |
% 12
[V: S1V1] B4- | B !sintro!A G E | D4- | D D E G | G4 !eintro!|]
w: loss, * And pour con- tempt * on all my pride. 
w: most, * I sac- ri- fice * them to His blood. 
w: meet, * Or thorns com- pose * so rich a crown? 
w: globe, * And all the globe * is dead to me. 
w: vine, * De- mands my soul, * my life, my all. 
[V: S2V1] B4- | B A G E | D4- | D D E G | G4 |]
[V: S2V2] G4- | G F E E | D4- | D D E G | G4 |]
[V: S3V1] B,2 G, G, | G,4 | D,4- | D, D, E, G, | G,4 |]
[V: S3V2] G,2 E,B,, | D,4 | D,4- | D, D, E, G, | G,4 |]
